images/epam_logo.svg

<?xml version="1.0" encoding="UTF-8" standalone="no"?>
<svg width="91px" height="33px" viewBox="0 0 91 33" version="1.1" xmlns="http://www.w3.org/2000/svg" xmlns:xlink="http://www.w3.org/1999/xlink">
    <!-- Generator: Sketch 42 (36781) - http://www.bohemiancoding.com/sketch -->
    <title>epam_logo</title>
    <desc>Created with Sketch.</desc>
    <defs>
        <polygon id="path-1" points="0.0579354582 32.2669323 12.4179833 32.2669323 12.4179833 0.335467331 0.0579354582 0.335467331 0.0579354582 32.2669323"></polygon>
    </defs>
    <g id="Page-1" stroke="none" stroke-width="1" fill="none" fill-rule="evenodd">
        <g id="desktop-3" transform="translate(-915.000000, -41.000000)">
            <g id="epam_logo" transform="translate(915.000000, 41.000000)">
                <path d="M17.1306594,11.2206988 L22.1487112,11.2206988 L22.1487112,5.89194183 C22.1487112,4.4051251 21.4054841,3.66153546 19.9186673,3.66153546 L19.3610657,3.66153546 C17.874249,3.66153546 17.1306594,4.4051251 17.1306594,5.89194183 L17.1306594,11.2206988 Z M17.1194203,14.6210534 L17.1306594,20.4820335 C17.1306594,21.9688502 17.874249,22.7124398 19.3610657,22.7124398 L20.0114801,22.7124398 C21.4982968,22.7124398 22.2418865,21.9688502 22.2418865,20.4820335 L22.2418865,17.6012127 L25.6803088,17.6012127 L25.6803088,20.3428143 C25.6803088,24.1064438 23.7751096,26.011643 20.0114801,26.011643 L19.2678904,26.011643 C15.504261,26.011643 13.5990618,24.1064438 13.5990618,20.7833124 L13.5990618,6.47202151 C13.5990618,2.26789402 15.504261,0.362694821 19.2678904,0.362694821 L20.0114801,0.362694821 C23.7751096,0.362694821 25.6803088,2.26789402 25.6803088,6.03152351 L25.6687072,14.6210534 L17.1194203,14.6210534 Z" id="Fill-1" fill="#FFFFFF"></path>
                <g id="Group-5" transform="translate(27.916335, 0.027046)">
                    <mask id="mask-2" fill="white">
                        <use xlink:href="#path-1"></use>
                    </mask>
                    <g id="Clip-4"></g>
                    <path d="M3.58953307,21.3379773 C4.56515458,22.1743797 5.68072032,22.638806 6.84196733,22.638806 C8.14315857,22.638806 8.88674821,22.034798 8.88674821,20.5943876 L8.88674821,5.72549522 C8.88674821,4.28508486 8.14315857,3.68107689 6.84196733,3.68107689 C5.68072032,3.68107689 4.56515458,4.14586574 3.58953307,4.98226813 L3.58953307,21.3379773 Z M0.0579354582,0.614268127 L3.58953307,0.614268127 L3.58953307,2.24066653 C4.42593546,1.35785777 5.86634582,0.335467331 7.91076414,0.335467331 C10.9311665,0.335467331 12.4179833,2.33347928 12.4179833,5.3074753 L12.4179833,21.0127701 C12.4179833,23.9864036 10.9311665,25.9844155 7.91076414,25.9844155 C5.86634582,25.9844155 4.42593546,25.008794 3.58953307,24.1723916 L3.58953307,32.267041 L0.0579354582,32.267041 L0.0579354582,0.614268127 Z" id="Fill-3" fill="#FFFFFF" mask="url(#mask-2)"></path>
                </g>
                <path d="M50.9226574,21.5043151 L50.9226574,13.2280283 L47.7166295,14.441845 C46.4154382,14.9526777 45.9974183,15.603092 45.9974183,17.0435024 L45.9974183,20.8539008 C45.9974183,22.0619167 46.6014263,22.6659247 47.7166295,22.6659247 C48.7850637,22.6659247 49.7610478,22.2943112 50.9226574,21.5043151 L50.9226574,21.5043151 Z M42.4658207,16.997096 C42.4658207,13.8842434 43.4882112,12.6294586 46.1830438,11.7002434 L50.9226574,10.073845 L50.9226574,5.89183307 C50.9226574,4.40501633 50.1790677,3.61502032 48.692251,3.61502032 L48.1168845,3.61502032 C46.6300677,3.61502032 45.8864781,4.40501633 45.8864781,5.89183307 L45.8864781,9.44590876 L42.4480558,9.44590876 L42.4480558,6.03141474 C42.4480558,2.26778526 44.353255,0.362586056 48.1168845,0.362586056 L48.7850637,0.362586056 C52.5486932,0.362586056 54.454255,2.26778526 54.454255,6.03141474 L54.454255,25.7327335 L50.9226574,25.7327335 L50.9226574,24.1527414 C49.9470359,25.0823191 48.6458446,26.0115343 46.6014263,26.0115343 C43.767012,26.0115343 42.4658207,24.3851359 42.4658207,21.5974904 L42.4658207,16.997096 Z" id="Fill-6" fill="#FFFFFF"></path>
                <path d="M68.7365056,25.7326972 L65.204908,25.7326972 L65.204908,5.52054582 C65.204908,4.26576096 64.6012625,3.70815936 63.5324657,3.70815936 C62.5564817,3.70815936 61.5344538,4.07977291 60.2796689,4.96258167 L60.2796689,25.7326972 L56.7484339,25.7326972 L56.7484339,0.641350598 L60.2796689,0.641350598 L60.2796689,2.267749 C61.3020594,1.29212749 62.649657,0.362549801 64.6012625,0.362549801 C66.4132865,0.362549801 67.6213024,1.10613944 68.2717167,2.40696813 C69.5265016,1.33817131 71.0133183,0.362549801 73.0577367,0.362549801 C75.7993382,0.362549801 77.1933422,2.03535458 77.1933422,4.77695618 L77.1933422,25.7326972 L73.6617446,25.7326972 L73.6617446,5.52054582 C73.6617446,4.26576096 73.0577367,3.70815936 71.9889398,3.70815936 C71.0133183,3.70815936 69.9909279,4.07977291 68.7365056,4.96258167 L68.7365056,25.7326972 Z" id="Fill-8" fill="#FFFFFF"></path>
                <polygon id="Fill-10" fill="#FFFFFF" points="9.07317131 2.95238805 9.07317131 7.56619681 3.13025498 13.2295873 9.07317131 18.7911012 9.07317131 23.5060614 0 14.9770773 0 11.5825235"></polygon>
                <polygon id="Fill-12" fill="#FFFFFF" points="90.746904 11.5825598 90.746904 14.9771135 81.6737327 23.5060976 81.6737327 18.7911375 87.616649 13.229261 81.6737327 7.56623307 81.6737327 2.9524243"></polygon>
            </g>
        </g>
    </g>
</svg>

<svg width="91" height="33" viewBox="0 0 91 33" xmlns="http://www.w3.org/2000/svg" xmlns:xlink="http://www.w3.org/1999/xlink"><title>epam_logo</title><defs><path id="a" d="M.058 32.267h12.36V.335H.058v31.932z"/></defs><g fill="none" fill-rule="evenodd"><path d="M17.13 11.22h5.02V5.893c0-1.487-.745-2.23-2.23-2.23h-.56c-1.486 0-2.23.743-2.23 2.23v5.33zm-.01 3.4l.01 5.862c0 1.487.744 2.23 2.23 2.23h.65c1.488 0 2.232-.743 2.232-2.23v-2.88h3.438v2.74c0 3.764-1.905 5.67-5.67 5.67h-.742c-3.764 0-5.67-1.906-5.67-5.23V6.473c0-4.204 1.906-6.11 5.67-6.11h.743c3.765 0 5.67 1.906 5.67 5.67l-.01 8.59h-8.55z" fill="#FFF"/><g transform="translate(27.916 .027)"><mask id="b" fill="#fff"><use xlink:href="#a"/></mask><path d="M3.59 21.338c.975.836 2.09 1.3 3.252 1.3 1.3 0 2.045-.603 2.045-2.044V5.724c0-1.44-.744-2.043-2.045-2.043-1.16 0-2.277.466-3.252 1.302v16.356zM.058.614H3.59V2.24C4.426 1.36 5.866.336 7.91.336c3.02 0 4.508 1.998 4.508 4.972v15.706c0 2.973-1.487 4.97-4.507 4.97-2.044 0-3.484-.974-4.32-1.81v8.094H.058V.614z" fill="#FFF" mask="url(#b)"/></g><path d="M50.923 21.504v-8.276l-3.206 1.214c-1.302.51-1.72 1.16-1.72 2.602v3.81c0 1.208.604 1.812 1.72 1.812 1.068 0 2.044-.372 3.206-1.162zm-8.457-4.507c0-3.113 1.022-4.368 3.717-5.297l4.74-1.626V5.892c0-1.487-.744-2.277-2.23-2.277h-.576c-1.487 0-2.23.79-2.23 2.277v3.554h-3.44V6.03c0-3.762 1.906-5.667 5.67-5.667h.668c3.764 0 5.67 1.905 5.67 5.668v19.703h-3.532v-1.58c-.976.93-2.277 1.86-4.322 1.86-2.833 0-4.134-1.628-4.134-4.416v-4.6zM68.737 25.733h-3.532V5.52c0-1.254-.604-1.812-1.673-1.812-.976 0-1.998.372-3.252 1.255v20.77h-3.532V.64h3.532V2.27C61.302 1.292 62.65.363 64.6.363c1.813 0 3.02.743 3.672 2.044 1.255-1.07 2.74-2.044 4.786-2.044 2.74 0 4.135 1.672 4.135 4.414v20.956h-3.53V5.52c0-1.254-.605-1.812-1.674-1.812-.977 0-2 .372-3.253 1.255v20.77zM9.073 2.952v4.614L3.13 13.23l5.943 5.56v4.716L0 14.976v-3.393M90.747 11.583v3.394l-9.073 8.53V18.79l5.943-5.56-5.943-5.664V2.952" fill="#FFF"/></g></svg>
